X:1
T:O salutaris
T:Ch. Gounod
T:O salutaris
T:(Duet for Mezzo-Soprano & Tenor or 2 Sopranos/Tenors )
T:Copyright © 
T:Copyright © 
T:Copyright © 
T:Copyright © 
T:Copyright © 
C:Ch. Gounod
Z:Copyright ©
%%score [ 1 2 ] { ( 3 5 7 ) | ( 4 6 ) }
L:1/8
Q:1/4=80
M:4/4
K:Ab
V:1 treble nm="MEZZO - SOPRANO" snm="S."
V:2 treble-8 transpose=-12 nm="TENORE" snm="T."
V:3 treble nm="Organo" snm="O."
V:5 treble 
V:7 treble 
V:4 treble 
V:6 treble 
V:1
"^Andante""^Andante" z8 | z8 | z8 | z8 ||!p! A4 A2 B2 | A4 G2 z2 | E2 G2 B2 c2 | B3 B A z A2 | %8
w: ||||O sa- lu-|ta- ris,|sa- lu- ta- ris|ho- sti- a, quae|
 G2 G2 (FA) (GF) | F3 F E z E2 | F2 G2 A2 (cB) | A3 A G2 z2 | z8 |!f! _G2 G>G F2 z2 | z8 | %15
w: coe- li pan- * dis *|o- sti- um, quae|coe- li pan- dis *|o- sti- um.||Bel- la pre- munt||
 _A2 A>A =G2!p! G2 | G4 E z!f! c2 | (B2 A2) (G2 F2) | E2 G2!>(! E3 =D!>)! | C6 z2 |!p! A4 A2 B2 | %21
w: ho- sti- li- a, da|ro- bur, da|ro- * bur, *|fer au- xi- li-|um.|O sa- lu-|
 A4 G2 z2 |!<(! E2 G2 B2!<)! c2 |"^cresc." B3 B A z!f! A2 | (A2 e2) (c2 A2) | F2 d2 c2 B2 | %26
w: ta- ris,|sa- lu- ta- ris|ho- sti- a, quae|coe- * li, _|coe- li pan- dis|
"^dim." (A4 G3) G |!p! A2 z2 z4 | _G6 G2 | F6 z2 | _F2 F2 F3 F | E6 z2 |"^cresc."!<(! c6 c2!<)! | %33
w: o- * sti-|um.|Da ro-|bur,|fer au- xi- li-|um,|da ro-|
 =B6 z2 |"^dim."!>(! !tenuto!_B2 !tenuto!B2 !fermata!B3!>)! B | A8- | A2 z2 z4 | z8 |"^rit." z8 | %39
w: bur,|fer au- xi- li-|um.|_|||
 z8 | z8 |] %41
w: ||
V:2
 z8 | z8 | z8 | z8 ||!p! c4 c2 d2 | c4 B2 z2 | G2 B2 d2 e2 | d3 d c z A2 | B2 c2 (df) (ed) | %9
w: ||||O sa- lu-|ta- ris,|sa- lu- ta- ris|ho- sti- a, quae|coe- li pan- * dis *|
 d3 d c z e2 | A2 B2 c2 (ed) | c3 c B2 z2 |!f! e2 e>d c2 B2 | B7/2 B/ =A2 z2 | f2 f>e =d2 c2 | %15
w: o- sti- um, quae|coe- li pan- dis *|o- sti- um.|Bel- la pre- munt ho-|sti- li- a,|bel- la pre- munt ho-|
 c7/2 c/ =B2!p! G2 | e4 c z!f! e2 | (g2 f2) (e2 =d2) | c2 G2!>(! =B3 B!>)! | c6 z2 |!p! c4 c2 d2 | %21
w: sti- li- a, da|ro- bur, da|ro- * bur, *|fer au- xi- li-|um.|O sa- lu-|
 c4 B2 z2 |!<(! G2 B2 d2!<)! e2 |"^cresc." d3 d c z z2 | z4 z2!f! A2 | A2 f2 e2 d2 |"^dim." c6 B2 | %27
w: ta- ris,|sa- lu- ta- ris|ho- sti- a,|quae|coe- li pan- dis|o- sti-|
!p! A2 z2 z4 | e6 e2 | =d6 z2 | _d2 d2 d3 d | c6 z2 |"^cresc."!<(! e6 e2!<)! | =d6 z2 | %34
w: um.|Da ro-|bur,|fer au- xi- li-|um,|da ro-|bur,|
"^dim."!>(! !tenuto!_d2 !tenuto!d2 !fermata!d3!>)! d | c8- | c2 z2 z4 | z8 | z8 | z8 | z8 |] %41
w: fer au- xi- li-|um.|_|||||
V:3
!p! a4 c'2 e2 | a2 c2 f2 =d2 | e2 A2 c2 Bc |!p! (B4 A2) !fermata!z2 ||!p! A6 B2 | A4 G4 | %6
 E2 G2 B2 c2 | (B4 A) z A2 | G2 G2 FA GF | [DF]4 [CE] z [Ee]2 | [EF]2 [DG]2 [CA]2 [Ec][DB] | %11
 [CA]4 [B,G] z z2 | E7/2 D/ C2 B,2 | [B,E_G]4 [=A,EF] z z2 | F7/2 E/ =D2 C2 | %15
 (([CF_A]4 [=B,G])) z G2 | (([EG]4 [CE])) z [Ec]2 | [GB]2 [FA]2 [EG]2 [=DF]2 | E2 G2 E3 =D | %19
 C2 z2 z4 | ([CA]6 [DB]2 | [CA]4) [B,G]4 | [G,E]2 [B,G]2 [DB]2 [Ec]2 | [DGB]4 [CA]2 z2 | %24
 A2 e2 c2 A2 | E2 d2 c2 B2 | [EA]4 [DG]4 | A2 E2 B2 A2 | z2 A2 B2 c2 | z2 F2 G2 A2 | z2 G2 A2 B2 | %31
 z2 E2 B2 A2 |!<(! z2 e2 c2 A2!<)! | z2 F2 G2 A2- |!>(! A2 G2 !fermata!F2 E2!>)! | A8- | A8- | A8 | %38
 [EA]4 [DB]4 |!pp! [Ac]8- | [Ac]2 z2 z4 |] %41
V:4
!<(! A4 c2!<)! E2 | A2 C2 F2 =D2 | E2[K:bass]!>(! C2 E2!>)! [E,_D]2 | D4 C2 !fermata!z2 || C6 D2 | %5
 C4 B,4 | G,2 B,2 D2 E2 | D4 C z C,2 | D,2 E,2 F,2 G,2 | A,2 G,2 A, z C2- | C2 B,2 A,2 F,2 | %11
 E,4- E, z E,2 | z8 | C,4 F,, z F,2 | z8 | =D,4 G,, z G,2 | [C,G,]4- [C,G,] z C2 | C4 A,4 | %18
 G,2 E,2 G,3 F, | E,2 E,2 C,3 B,, |!p! E,8- | E,8- |!<(! E,8!<)! |"^cresc." =E,4 F,2 _E,D, | A,8- | %25
 A,6 D2 | C6 B,2 |!p! A,8 | _G,8 | F,8 | _F,8 | E,8 |"^cresc." _G,8 | F,8 |"^dim." E,8- | %35
!p! E,2 A,2 G,2 _G,2 | F,2 _G,2 _F,2 E,2 |!<(! E,2 _G,2 _F,2 E,2!<)! |!>(! _G,4 _F,4!>)! | %39
 [E,A,]8- | [E,A,]2 z2 z4 |] %41
V:5
 x8 | x8 | x2 A4 [EG]2 | [E-G]4 E2 x2 || E8 | E8 | E4 G4 | [E-G]4 E x A,2 | B,2 C2 DF ED | x8 | %10
 x8 | x8 | x8 | x8 | x8 | x8 | x8 | x8 | C4 =B,4 | x8 | x8 | E8 | E4 G4 | x8 | E8 | x2 D2 E2 F2 | %26
 x8 | C8- | (E8 | (=D8) | (_D8) | (C8) | (E8) | (=D8) | (_D8) | C8-) | C8- | C2 E2 D2 C2 | A8 | %39
 C8- | C2 x2 x4 |] %41
V:6
 x8 | x8 | x2[K:bass] x6 | E,4 A,2 x2 || A,8 | E,8 | E,8 | A,4- A, x A,,2- | A,,8- | %9
 A,,4- A,, x C,2 | D,2 E,2 F,2 D,2 | x5 x x2 | x8 | x8 | x8 | x8 | x8 | F,8 | C,4 G,,4 | %19
 C,2 x2 x4 | A,,8 | E,,8 | x8 | x8 | C,8 | D,2 B,,2 C,2 D,2 | E,8 | A,,8- | A,,8- | A,,8- | A,,8- | %31
 A,,8- | A,,8- | A,,8- | A,,8- | A,,8- | A,,8- | A,,8- | A,,8- | A,,8- | A,,2 x2 x4 |] %41
V:7
 x8 | x8 | x8 | x8 || x8 | x8 | x8 | x8 | x8 | x8 | x8 | x8 | x8 | x8 | x8 | x8 | x8 | x8 | x8 | %19
 x8 | x8 | x8 | x8 | x8 | x8 | F4 x4 | x8 | x8 | x8 | x8 | x8 | x8 | x8 | x8 | x8 | x8 | x8 | x8 | %38
 x8 | x8 | x8 |] %41

